X:1
T:La plus que lente
T:La plus que lente
T:Valse
T:Claude Debussy
C:Claude Debussy
%%score { ( 1 3 4 ) | ( 2 5 6 ) }
L:1/8
Q:1/4=86
M:3/4
K:Gb
V:1 treble nm="Piano" snm="Pno."
V:3 treble 
V:4 treble 
V:2 bass 
V:5 bass 
V:6 bass 
V:1
"^Lent  (molto rubato con morbidezza)" z2!pp! (.D2 .E2 | !tenuto!F3 A F2- | (FA)(FA)(FA) | %3
 .F2) z2 !tenuto!F2- | F2 (D3 E | F3 A F2- |!<(! FAFAGB)!<)! | e6- | e2!<(! (!tenuto!e3 e!<)! | %9
!mf! g3 f e2- | e2 d2 f2) | (ed!>(! c4- | c2 B2 A2)!>)! | (GFEGFE |!>(! GFEGFE!>)! | %15
[Q:1/4=80]"^Retenu         -"!p! DE F4-) |"^-       -       -" F z!>(! (.D2 .E2!>)! | %17
!pp![Q:1/4=86]"^Mouvt" !tenuto!F3 A F2- | FAFAFA | .F2) z2 !tenuto!F2- | F2 (D3 E | F3 A F2- | %22
[Q:1/4=80]"^Animez      un     peu         -      -       -       -        -        -       -       -      -"!<(! FAFAGB!<)! | %23
[Q:1/4=86]"^T" e6-) | e2[Q:1/4=88]"^T"!<(! e3 e!<)! |[Q:1/4=100]"^T"!mf! !tenuto!b3 a g2 | %26
[Q:1/4=106]"^En  serrant         -                 -                -                  -" g(bagba | %27
 ged[Q:1/4=107]"^T"ced | cA[Q:1/4=110]"^T"GFAG) | %29
[Q:1/4=90]"^Retenu         -        -          -          -""_molto dim." (EDCB,DC | EFcBF=D | %31
!p!!>(! FA!>)! G4-) | G[Q:1/4=100]"^Rubato"!p!!<(! !fermata!z x4!<)! | B6- | %34
 B!p!!<(! (B,C!courtesy!_DEF!<)! | B6-) | B!<(! (B,CDEF | %37
B)!<)![Q:1/4=106]"^En  serrant" (CD"_crescendo"EFG |c)[Q:1/4=107]"^T" (DEFGA | %39
d)[Q:1/4=110]"^T" (EFGAB |[Q:1/4=100]"^Rubato"e)!p!!<(! (Bcdef!<)! | [Bb]6) | z!p!!<(! (Bcdef!<)! | %43
 [Bb]6) | b2!mf!!<(! ([Bb]3 [=c=c'])!<)! | %45
!f![Q:1/4=120]"^Appassianato" (!tenuto![=c=c']3 [Bb][Aa][=G=g]) | %46
 (!tenuto![Ff]3 [Ee][=D=d][=C=c]) | (!tenuto![_C_c]3 [Dd][A,A][=A,=A] |!<(! [B,B]4 [Bb]2)!<)! | %49
!ff! (!tenuto![=c=c']3 [Bb][Aa][=G=g]) | (!tenuto![Ff]3 [Ee][=D=d][=C=c]) | %51
 (!tenuto![_C_c]3 [Dd][A,A][=A,=A] |!<(! [B,B]4 [=D=d]2)!<)! | (!tenuto![_D_d]3 [Ee][B,B][=B,=B] | %54
!<(! [=C=c]4 [=E=e]2)!<)! |!p! (_e3 fef) |"_cresc." (g3 aga) | (__b3 c'bc') | %58
[Q:1/4=85]"^Retenu" d'2 z2 z2 |!pp![Q:1/4=100]"^Mouvt (Rubato)" (!tenuto!f3 a f2- | fafafa | %61
 f2) z2 !tenuto!f2- | f2 (d3 e | !tenuto!f3 a f2-) |!<(! fafagb!<)! |!f! e'6- | %66
 [bc'e']2"_dim." e'3 e' |!p! (b'6- | %68
[Q:1/4=100]"^En  serrant"[xb']a'g'[Q:1/4=102]"^T"b'a'[Q:1/4=104]"^T"g' | %69
 b[Q:1/4=106]"^T"agba[Q:1/4=108]"^T"g |!<(! BAGFAG)!<)! | %71
[Q:1/4=95]"^Retenu"!p!!>(! (ED!courtesy!_CB,DC | EFcBF=D!>)! |!pp!!>(! FA G4-)!>)! | %74
 G !fermata!z (=C2 D2 ||[K:A]!p![Q:1/4=100]"^En animant" D3) F E2- | (E^A,B,^B,CD) | (^DG D4- | %78
 ^DE^B,C=D^D-) |!<(! (^DGDE^EF) | (^DGDE^EF-)!<)! |[Q:1/4=90]"^Cédez"!p! (F=G f2 F^^F- | %82
!<(! ^^FGg^f- f2)!<)! |[Q:1/4=85]"^Cédez encore plus"!p!!<(! (F=G f2) (F^^F- | %84
 ^^F!<)!G!>(! g ^f2 g)!>)! |!f![Q:1/4=100]"^Tempo animé"!<(! ([ac']3 [df])([gb][ce]) | %86
 ([fa]3 [Bd])[eg]([Ac]!<)! | .[df]2)!>(! ([Ac][DF])([GB][CE]) | %88
([FA][B,D])([EG][A,C])([EG][F,A,])!>)! |!p![Q:1/4=90]"^Moins animé" (D3 F E2- | E^A,B,^B,CD | %91
 ^DG D4- |!<(! ^DEFGAc)!<)! |[Q:1/4=100]"^animé"!f!!<(! ([c'e']3 [fa])([b^d'][eg]) | %94
 ([ac']3 [^df])([gb][ce])!<)! | [fa]2!>(! ([Ac][^DF])([GB][CE]) | %96
([FA][B,^D])([EG][A,C])([DF][F,A,])!>)! |[Q:1/4=90]"^En Retenant"!p! (=D3 F D2- | D^A,B,^B,CD | %99
 ^DG D4- | DE^B,C=D^D-) |[Q:1/4=85]"^Très retenu"!p! (^DE^B,C=D^D- |!>(! ^DE^B,CDE)!>)! || %103
[K:Gb][Q:1/4=85]"^1er Mouvt (En animant peu à peu)"!pp! (!tenuto!F3 A F2- | FAFAFA | %105
 .F2) z2[Q:1/4=87]"^T" !tenuto!F2- | F2 (D3 E |[Q:1/4=94]"^T" !tenuto!F3 A F2- | %108
[Q:1/4=100]"^T" FAFAGB |!<(! e6-) | e2 (e3!<)! e |!f! !courtesy!_g3 f e2- | e2 d2 f2) | %113
 (ed!>(! c4- | c2 B2 A2)!>)! |[Q:1/4=85]"^En Retenant"!p! (GFEGFE | GFEGFE |!p! DE!>(! F4-)!>)! | %118
 F2!<(! ([Dd]2 [Fe]2)!<)! |[Q:1/4=100]"^Tempo animé"!mf! (!tenuto![Ff]3 [Aa] [Ff]2- | %120
 [Ff][Aa][Ff][Aa][Ff][Aa] | [Ff]2) z2 !tenuto![Ff]2- | [Ff]2 (!tenuto![Dd]3 [Ee] | %123
 [Ff]3 [Aa] [Ff]2-) |!<(! [Ff]([Aa][Ff][Aa][Gg][Bb]!<)! |!f! [ee']6) | %126
 [bc'e']2[Q:1/4=85]"^Cédez"!>(! e'3 e'!>)! |!p! !tenuto!b'6- | %128
[Q:1/4=90]"^En  serrant"!<(! b'a'g'b'a'g' |[Q:1/4=92]"^T" ba[Q:1/4=94]"^T"gb[Q:1/4=96]"^T"ag!<)! | %130
[Q:1/4=98]"^T"!<(! BA[Q:1/4=100]"^T"GFAG!<)! | %131
!p![Q:1/4=87]"^Retenu       -           -            -            -"!>(! (EDCB,DC | EFcBF=D!>)! | %133
!>(! FA!>)! G4-) | G6 |[Q:1/4=82]"^Plus lent"!>(! FA!>)! G4- | G3 =A,B,_C- | =CE D4- | %138
 D2!pp![Q:1/4=80]"^De plus en plus lent et       jusqu'à la fin"!>(! (d2 e2!>)! | %139
 !tenuto!b3 d' b2-!pp! | bd'b[Q:1/4=75]"^T"d'bd') |[Q:1/4=70]"^T" .b2 z2 !tenuto!b2- | b2 g3 a | %143
[Q:1/4=65]"^T" b6- | b2[Q:1/4=60]"^T"!8va(! (g'3 a' | b'6-) | b'6!8va)! | .G,2 z2 z2 |] %148
V:2
 z6 | (.G,,2 .D,2 .D,,2 | (G,, !tenuto!D,3) .D,,2) | (.G,,2 .D,2 .D,,2 | (G,, D,3) D,,2) | %5
 (.G,,2 .D,2 .D,,2 | (G,, D,3) .G,,2) | (G,,2 [E,B,D]2-) [E,B,D] z | (G,,2 [E,B,D]2-) [E,B,D] z | %9
 z2 ([B,G]3 [A,F] | [G,E]2 [F,D]2 [A,F]2 | [G,CE]4) z2 |[I:staff -1] E2[I:staff +1] D2 C2 | %13
 B,A,G,B,A,G, | B,4 A,G, | z2 z2 (=G,,2 | B,,2 A,,2 D,,2) | (G,,2 D,2 D,,2 | %18
 (G,, !tenuto!D,3) D,,2) | (G,,2 D,2 D,,2 | (G,, !tenuto!D,3) D,,2) | (G,,2 D,2 D,,2 | %22
 G,, D,3 G,,2) | (G,,2 [E,B,D]2-) [E,B,D] z | (G,,2 [E,B,D]2-) [E,B,D] z | z2 [G,CEG]4- | %26
 [G,CEG][I:staff -1](BAGBA |[I:staff +1] x6 | CA,G,F,A,G,) | (E,D,C,B,,D,C, | E,F,CB,F,=D, | %31
 F,)A, G,4 | .G,,, z z2 z2 | =D,, z !tenuto![=D,A,]4 | (=D,,6 | .E,,) z !tenuto![E,A,]4 | E,,6 | %37
 z2 [D,A,C]2- [D,A,C] z | z2 [D,A,C]2- [D,A,C] z | z2 [D,A,C]2- [D,A,C] z | z B,CDEF | %41
 z2 [E,A,CE]4 | z B,CDEF | z2 [A,B,=D]4- | [A,B,=D]2 z2 z2 | ([E,,,E,,]2 [B,,=G,B,]2) z2 | %46
 ([=G,,,=G,,]2 [B,,=G,B,]2) z2 | ([_G,,,_G,,]2 [E,__B,]2) z2 | ([F,,,F,,]2 [=D,A,]2) z2 | %49
 ([E,,,E,,]2 .[B,,=G,B,]2) z2 | ([=G,,,=G,,]2 .[B,,=G,B,]2) z2 | ([_G,,,_G,,]2 .[E,__B,]2) z2 | %52
 ([F,,,F,,]2 .[=D,A,]2) z2 | ([A,,,A,,]2 [F,_C]2) z2 | ([=G,,,=G,,]2 [=E,B,]2) z2 | E3 FEF | %56
[K:treble] (G3 AGA) | __B3 cBc | z2 [G,DE]2 z2 |[K:bass] z2 [A,EF]2- [A,EF] z | %60
 z2 [A,=DF]2- [A,DF] z | z2 [A,EF]2- [A,EF] z | z2 [A,DF]2- [A,DF] z | z2 [A,=CF]2- [A,CF] z | %64
 z2 [A,_CF]2 [G,B,E]2 | A,,,6- | A,,,6 | A,,,6-[K:treble] | =E z z2 z2 | A,,,2 z2 z2 | z6 | %71
[K:bass] (E,D,C,B,,D,C, | E,F,CB,F,=D, | F,A, G,4-) | G, z z2 z2 ||[K:A] (^A,, E,3) =A,,2 | %76
 (B,, E,3) B,,2 | (^B,, E,3) B,,2 | (C, E,3) .E,,2 | (^B,,E, C,2 E,,2) | (^B,,E, C,2 E,,2) | %81
 (^A,,2 E,2 E,,2 | B,,2 E,,2 B,,^B,,) | (C,2 =G,2 ^^C,2 | ^D,4 G,,2) | %85
 z2 (.[=D,F,A,C]2 .[E,G,B,D]2 | .[F,A,CE]2 .[G,B,DF]2 .[A,CEG]2 | .[B,DFA]2) ([A,C]2 [G,B,]2 | %88
 [F,A,]2 [E,G,]2 B,,2) | (^A,, E,3) E,,2 | (B,, E,3) E,,2 | (^B,, E,3) E,,2 | (C, E,3) E,,2 | %93
 z2 (.[F,A,CE]2 .[G,B,^DF]2 |[K:treble] .[A,CEG]2 .[B,^DFA]2 .[CEGB]2 | %95
 .[^DFAc]2)[K:bass] (A,C)(B,G,) |(F,A,)(G,E,) B,,2 | [^E,G,]2 [F,A,]2 z2 | (=C,2 [^E,G,]2) z2 | %99
 (^B,,2 G,2 F,2 | E,,2 C,2 E,2) | (F,2 =G,4 | F,2 =G,2 E,2) ||[K:Gb]!pp!!>(! (E,D, A,,2 D,,2)!>)! | %104
!>(! (E,D, A,,2 D,,2)!>)! | (E,D, A,,2 D,,2) | (E,D, A,,2 D,,2) | (E,D, A,,2 D,,2) | %108
 (E,D,- D,2 G,2) | (F,E, B,,2 E,,2) | (F,E, B,,2 E,,2) | z2 [B,G]3 [A,F] | [G,E]2 [F,D]2 [A,F]2 | %113
 [G,CE]4 z2 | x6 | ([=A,=C]4 [B,D]2- | [B,D]2 [=A,=C]4) | ([_A,=B,]4 [=A,=C]2- | %118
 [=A,=C]2 [_A,_C]4) | (!arpeggio![D,G,B,D]2 .G,,2) z2 | (!arpeggio![D,G,B,D]2 .D,,2) z2 | %121
 (!arpeggio![D,F,B,D]2 .B,,,2) z2 | (!arpeggio![D,F,B,D]2 .B,,,2) z2 | %123
 (!arpeggio![D,G,B,D]2 .[G,,,G,,]2) z2 | [D,G,B,D]2 z2 [=D,G,B,=D]2 | (C,,6- | C,,4 B,,,2) | %127
 A,,,6-[K:treble] | =E z z2 z2 | A,,,2 z2 z2 | z6 |[K:bass] (E,D,C,B,,D,C, | E,F,CB,F,=D, | %133
 F,A, G,4-) | G,6 | (F,A,) G,4- | G,2 z2 z2 | D,,6- | D,,2 z2 z2 | z2 F3- A | F2 z2 z2 | %141
 z2 _F3- A | _F2 z2 z2 | z2 ([E,G,B,E]4 | [=D,G,B,=D]6 | [_D,G,B,_D]6-) | [_D,G,B,_D]6 | %147
 .[G,,,G,,]2 z2 z2 |] %148
V:3
 x6 | z2 [__B,D]2- [B,D] z | z2 [__B,D]2- [B,D] z | z2 [__B,D]2- [B,D] z | z2 [__B,D]2- [B,D] z | %5
 z2 [__B,D]2- [B,D] z | z2 [__B,D-]2 [_B,D]2 | z2 [EB]2- [EB] z | z2 [EB]2- [EB] z | z2 (B3 A | %10
 G2 F2 A2) | G4 F2 | x6 | C6- | C6 | [F,C]6- | [F,C]4 z2 | z2 [__B,D]2- [B,D] z | %18
 z2 [__B,D]2- [B,D] z | z2 [__B,D]2- [B,D] z | z2 [__B,D]2- [B,D] z | z2 [__B,D]2- [B,D] z | %22
 z2 [__B,D-]2 [_B,D]2 | z2 [EB]2- [EB] z | z2 [EB]2- [EB] z | z2 [ce]4- | [ce]2 x4 | GEDCED | x6 | %29
 x6 | x6 | z2 z2 [B,_D]2- | [B,D] B,CDEF | z2!p!!>(! (G2 F2)!>)! | x6 | z2!p!!>(! (G2 F2)!>)! | %36
 x6 | x6 | x6 | x6 | x6 | z2!>(! c4!>)! | x6 | z2!>(! B4-!>)! | [FBf]2 x4 | z2 [E=G]2 x2 | %46
 z2 [=GB]2 z2 | z2 [CE__B]2 x2 | z2 [B,=DA]2 z2 | z2 .[E=G]2 x2 | z2 .[=GB]2 x2 | z2 [CE__B]2 x2 | %52
 z2 [B,=DA]2 z2 | z2 [DF_c]2 x2 | z2 [=C=EB]2 z2 | z2 [=Gd]2- [Gd] z | z2 [_Gd]2- [Gd] z | %57
 z2 [__Bd]2- [Bd] z |[I:staff +1] f"_dim. molto"[I:staff -1].A.__B.c.d.e | z2 [Ae]2- [Ae] z | %60
 z2 [A=d]2- [Ad] z | z2 [Ae]2 [Ae] z | z2 [Ad]2- [Ad] z | z2 [A=c]2- [Ac] z | z2 [A_c]2 [Be]2 | %65
 x4 .[EGBc]2 | .[eg]2 z2 z2 | x6 | x6 | x6 | x6 | x6 | x6 | z2 z2 [B,D]2- | [B,D] x5 || %75
[K:A] z2 G,4 | x2 G,4 | z2 A,4 | z2 A,4 | z2 [A,C]4 | z2 [A,C]4 | [=G,C]6 | [^G,D]6 | %83
 [^A,E]4 [B,^E]2 | [^B,^F]6 | x6 | x6 | x6 | x6 | z2 G,4 | z2 G,4 | z2 A,4 | A,2 [A,C]4 | x6 | x6 | %95
 x6 | x6 | x6 | x6 | A,6- | A,6 | A,6 | A,6 ||[K:Gb] z2 .[F,CD]2 x2 | z2 [F,CD]2 x2 | %105
 z2 .[F,CD]2 x2 | z2 .[F,C]2 x2 | z2 .[F,CD]2 x2 | z2 [CD]2 [B,D]2 | [D=G]6 | [D=G]6 | z2 c4- | %112
 c6 | (G4 F2 | E2[I:staff +1] D2 C2) | x6 | x6 | x6 | x2[I:staff -1] F4 | [Bd]4 x2 | %120
 [Bd]2 x2 [Bd]2 | [Bd]4 x2 | [Bd]4 x2 | [Bd]4 x2 | [Bd]2 x2 [B=d]2 | x4 .[EGBc]2 | .[eg]2 z2 z2 | %127
 x6 | x x5 | x6 | x6 | x6 | x6 | z2 z2!pp! [G,A,__E]2- | [G,A,__E]2 z2 z2 | z2 z2!pp! [G,=C__E]2- | %136
 [G,=C__E]2 x4 | [F,C]6- | [F,C]2 x4 | x6 | x6 | x6 | x6 | x6 | x2!8va(! x4 | x6 | x6!8va)! | x6 |] %148
V:4
 x6 | x6 | x6 | x6 | x6 | x6 | x6 | x6 | x6 | x2 c4- | c6 | x6 | x6 | x6 | x6 | x6 | x6 | x6 | x6 | %19
 x6 | x6 | x6 | x6 | x6 | x6 | x6 | x6 | x6 | x6 | x6 | x6 | x6 | x6 | x2 C4 | x6 | x2 C4 | x6 | %37
 x6 | x6 | x6 | x6 | x2 ((!tenuto![Gg]2 [Ff]2)) | x6 | x2 ((!tenuto![Gg]2 [Ff]2-)) | x6 | x6 | x6 | %47
 x6 | x6 | x6 | x6 | x6 | x6 | x6 | x6 | x6 | x6 | x6 | x6 | x6 | x6 | x6 | x6 | x6 | x6 | x6 | %66
 x6 | x6 | x6 | x6 | x6 | x6 | x6 | x6 | x6 ||[K:A] x6 | x6 | x6 | x6 | x6 | x6 | x6 | x6 | x6 | %84
 x6 | x6 | x6 | x6 | x6 | x6 | x6 | x6 | x6 | x6 | x6 | x6 | x6 | x6 | x6 | x6 | x6 | x6 | x6 || %103
[K:Gb] x6 | x6 | x6 | x6 | x6 | x6 | x6 | x6 | x2 B3 A | G2 F2 A2 | x6 | x6 | x6 | x6 | x6 | x6 | %119
 x6 | x6 | x6 | x6 | x6 | x6 | x6 | x6 | x6 | x6 | x6 | x6 | x6 | x6 | x6 | x6 | x6 | x6 | x6 | %138
 x6 | x6 | x6 | x6 | x6 | x6 | x2!8va(! x4 | x6 | x6!8va)! | x6 |] %148
V:5
 x6 | x6 | x6 | x6 | x6 | x6 | x6 | x6 | x6 | (([A,,,A,,]6 | C6)) | x6 | x6 | A,,6- | A,,6 | x6 | %16
 x6 | x6 | x6 | x6 | x6 | x6 | x6 | x6 | x6 | [C,,C,]4 x2 | x6 | x6 | x6 | x6 | x6 | %31
 z2 z2 [G,,D,]2- | [G,,D,] x5 | x6 | x6 | x6 | x6 | F,,6 | E,,6 | D,,6 | G,,6 | x6 | %42
 !tenuto!A,,,4 x2 | x6 | [B,,,B,,]6 | x6 | x6 | x6 | x6 | x6 | x6 | x6 | x6 | x6 | x6 | %55
 z2 !tenuto![B,D]2- [B,D] z |[K:treble] z2 [__B,DE]2- [B,DE] z | z2 [A,DE]2- [A,DE] z | x6 | %59
[K:bass] .=B,,6 | .=C,6 | .=B,,6 | .D,6 | (=D,6 | E,6) | z2 .[E,G,B,C]2 x2 | x6 | %67
 z2 z E,/4G,/4B,/4=C/4"^léger"[I:staff -1]E/4G/4B/4=c/4[K:treble][I:staff +1]e/4g/4b/4=c'/4 | %68
 A,,,6- | x6 | x6 |[K:bass] x6 | x6 | z2 z2 ([G,,D,]2 | .G,,,) x5 ||[K:A] x6 | x6 | x6 | x6 | x6 | %80
 x6 | x6 | x6 | x6 | x6 | B,,,6 | x6 | x6 | x6 | x6 | x6 | x6 | x6 | [F,,,F,,]6 |[K:treble] x6 | %95
 x2[K:bass] x4 | x6 | (^A,,2 .B,,2) x2 | x2 .^C,2 z2 | x6 | x6 | x6 | x6 ||[K:Gb] x6 | x6 | x6 | %106
 x6 | x6 | x6 | B,6 | B,6 | x2 C4- | C6 | x6 | x6 | x6 | x6 | x6 | x6 | x6 | x6 | x6 | x6 | x6 | %124
 x6 | z2 .[E,G,B,C]2 x2 | x6 | %127
 z2 z E,/4G,/4B,/4=C/4"^léger"[I:staff -1]E/4G/4B/4=c/4[K:treble][I:staff +1]e/4g/4b/4=c'/4 | %128
 A,,,6- | x6 | x6 |[K:bass] x6 | x6 | z2 z2 [_F,,C,]2- | [_F,,C,]2 z2 z2 | z2 z2 [__E,,__B,,]2- | %136
 [__E,,__B,,]2 x4 | x6 | x6 | x2 [F,B,D]4- | [F,B,D]2 x4 | x2 [_F,B,D]4- | [_F,B,D]2 x4 | %143
 [G,,,G,,]6 | x6 | x6 | x6 | x6 |] %148
V:6
 x6 | x6 | x6 | x6 | x6 | x6 | x6 | x6 | x6 | x2 C4- | x6 | x6 | x6 | x6 | x6 | x6 | x6 | x6 | x6 | %19
 x6 | x6 | x6 | x6 | x6 | x6 | x6 | x6 | x6 | x6 | x6 | x6 | x6 | x6 | x6 | x6 | x6 | x6 | x6 | %38
 x6 | x6 | x6 | x6 | x6 | x6 | x6 | x6 | x6 | x6 | x6 | x6 | x6 | x6 | x6 | x6 | x6 | x6 | %56
[K:treble] x6 | x6 | x6 |[K:bass] x6 | x6 | x6 | x6 | x6 | x6 | x6 | x6 | x5[K:treble] x | x6 | %69
 x6 | x6 |[K:bass] x6 | x6 | x6 | x6 ||[K:A] x6 | x6 | x6 | x6 | x6 | x6 | x6 | x6 | x6 | x6 | x6 | %86
 x6 | x6 | x6 | x6 | x6 | x6 | x6 | x6 |[K:treble] x6 | x2[K:bass] x4 | x6 | x6 | x6 | x6 | x6 | %101
 x6 | x6 ||[K:Gb] x6 | x6 | x6 | x6 | x6 | x6 | x6 | x6 | [A,,,A,,]6 | x6 | x6 | x6 | x6 | x6 | %117
 x6 | x6 | x6 | x6 | x6 | x6 | x6 | x6 | x6 | x6 | x5[K:treble] x | x6 | x6 | x6 |[K:bass] x6 | %132
 x6 | x6 | x6 | x6 | x6 | x6 | x6 | [G,,,G,,]6 | x6 | [G,,,G,,]6 | x6 | x6 | x6 | x6 | x6 | x6 |] %148

